lib/brands/icons/alfa-bank.svg

<svg xmlns="http://www.w3.org/2000/svg" fill="none" aria-hidden="true" viewBox="0 0 48 48"><g id="alfa_bank-Icon"><circle id="bg" cx="24" cy="24" r="21" fill="#EE2A23"/><g id="alfa_bank"><path fill="white" d="M13.5 34.1712C13.5 34.0204 13.6439 33.8965 13.8241 33.8965H34.1721C34.3561 33.8965 34.5 34.0204 34.5 34.1712V37.2273C34.5 37.3781 34.3561 37.5 34.1721 37.5H13.8241C13.6439 37.5 13.5 37.3781 13.5 37.2273V34.1712Z"/><path fill="white" fill-rule="evenodd" d="M24.0025 10.5C26.2286 10.5 26.9281 11.8179 27.515 13.1337L33.7204 27.1604C33.7667 27.2699 33.7354 27.4496 33.5315 27.5147C33.3262 27.5787 30.3205 28.5434 30.1541 28.595C29.9877 28.6477 29.8012 28.5713 29.7412 28.4339C29.6786 28.2986 28.431 25.448 28.2908 25.1299H19.7167C19.5815 25.448 18.3189 28.3048 18.2626 28.4339C18.205 28.5651 18.0261 28.6539 17.8484 28.595C17.6707 28.5372 14.6537 27.5725 14.4735 27.5147C14.3009 27.4589 14.222 27.2968 14.2821 27.1604C14.4948 26.6709 20.1922 13.805 20.4825 13.1337C21.0481 11.8375 21.7714 10.5 24.0025 10.5ZM21.0844 21.953L24.02 14.7697L26.9281 21.953H21.0844Z" clip-rule="evenodd"/></g></g></svg>

<svg xmlns="http://www.w3.org/2000/svg" fill="none" aria-hidden="true" viewBox="0 0 48 48"><circle cx="24" cy="24" r="21" fill="#EE2A23"/><path fill="#fff" d="M13.5 34.171c0-.15.144-.274.324-.274h20.348c.184 0 .328.123.328.274v3.056c0 .151-.144.273-.328.273H13.824c-.18 0-.324-.122-.324-.273v-3.056Z"/><path fill="#fff" fill-rule="evenodd" d="M24.003 10.5c2.226 0 2.925 1.318 3.512 2.634L33.72 27.16c.047.11.015.29-.188.355-.206.064-3.211 1.028-3.378 1.08-.166.053-.353-.024-.413-.161-.062-.135-1.31-2.986-1.45-3.304h-8.574c-.136.318-1.398 3.175-1.454 3.304-.058.131-.237.22-.415.161-.177-.058-3.194-1.022-3.374-1.08-.173-.056-.252-.218-.192-.355.213-.49 5.91-13.355 6.2-14.026.566-1.296 1.29-2.634 3.52-2.634Zm-2.919 11.453 2.936-7.183 2.908 7.183h-5.844Z" clip-rule="evenodd"/></svg>
